X: 27895
T: Mountain Lark, The
R: reel
M: 4/4
K: Edorian
EBBA B/c/d ef|dfBd ADFD|EBBA B/c/d ef|1 dBAF BE ED:|2 fefd Beef||
eB~B2 efge|fdad bdad|eB~B2 efge|f2df e2ef|
eB~B2 efge|fdad bdad|g2ge fgfe|dBAF E3D||

